X:0
T:I Have a Wife of My Ain
G:jig
M:9/8
L:1/8
Q:3/8=120
K:EDor
EFE GGA B3|E2E G2A BGE |\
E2E GGA B3|D2D dcB AFD||
gag fgf e3|E2E G2A BGE |\
g2g fgf e3|D2D dcB AFD|]
